X:1
T:Fashion is a tyrant Goddess
T:Fashion is a tyrant Goddess
T:Fashion
T:William Charles Levey
C:William Charles Levey
%%score 1 { 2 | 3 }
L:1/8
Q:1/4=92
M:3/4
K:D
V:1 treble nm="Dora"
V:2 treble nm="Piano"
V:3 bass 
V:1
"^Andante" z6 | z6 | z6 | z6 | z6 | z6 | z6 | z6 | z6 | A3/2 ^G/ A B c d | (c=G) c4 | %11
w: |||||||||Fash- ion is a ty- rant|God- * dess,|
 B3/2 ^A/ B d c B | =A6 | A3/2 ^G/ A B c!>(! d | (c!>)!E) c4 | c B ^A!>(! B F ^G!>)! | =A4 z2 | %17
w: That the mind of men be-|fools,|Crush- ing hu- man souls and|bo- * dies|In a set of nar- row|rules.|
 _B B"^cresc." B B A G | =c6 |!<(! _B3/2 B/!<)! B B A G | =c6 | =c c"^cresc." c c!<(! =B A!<)! | %22
w: Par- ing to a le- vel|plain|All the di- verse thoughts of|man,|Thoughts and ac- tions meant to|
 ^c6 |!f! e ^d =d ^c (3(cB) E |!p!"^rall." A6 |!p! d"^a tempo dolce" d d3 e | d c c2 c2 | %27
w: be|Grand and ma- ni- fold _ and|free.|Strength of soul and|depth of pas- sion,|
!>(! c B B3!>)! c | B A A4 |!f! B!<(! c d2 e2!<)! | d F B2 A2 | A ^A B d!>(! c !fermata!e!>)! | %32
w: No- ble deeds and|Na- ture's grace,|Des- pot Fash- ion,|cru- el Fash- ion,|Stamps down these as out of|
 d4 z2 | z6 | z6 | z6 | z6 | z6 | z6 | z6 | z6 | A3/2 ^G/ A B c d | (c=G) c4 | B3/2 ^A/ B d c =B | %44
w: place.|||||||||Though she wrethes her face with|laugh- * ter|Wea- ri- ness is in her|
 =A6 | A ^G A B c!>(! d | (c!>)!E) c4 | c B ^A B!>(! F/ ^G3/2!>)! | =A6 | %49
w: train,|Tired of e- ver follow- ing|af- * ter|That far good she can- not|gain.|
 _B3/2 B/"^cresc." B B A G | =c6 | _B3/2 B/!<(! B B!<)! A G | =c6 | =c c"^cresc." c c B A | ^c6 | %55
w: For the God- dess sees and|feels|Far be- hind her cha- riot|wheels|Hum- bler toil- ers trudge con-|tent|
!f! e ^d =d c (3cB E |!p!"^rall." A6 |"^a tempo dolce" d d d2 e2 | d c c2 c2 | c B!>(! B2 c2!>)! | %60
w: With the lot that heav'n _ hath|sent.|Calm con- tent- ment,|sweet com- pas- sion|La- bour, bring- ing|
 B A A4 |!f! B c d2 e2 | d F B2 A2 | A ^A B!<(! d (3(cf)!<)! !fermata!e | d4 z2 | z6 | %66
w: af- ter ease,|Des- pot Fash- ion,|striv- ing Fash- ion,|Hath no trea- sures such _ as|these.||
 !fermata!z6 |] %67
w: |
V:2
!p! z2 z [Fdf][Fdf][Fdf] | [Fdf]3 [Fdf][Fdf][Fdf] | [Fdf]3 [Fdf]"_cresc."[Fdf][Fdf] | %3
 [Fdf]3 [=cdf][cdg][cda] | [Bdb]3 [Bdb][Bdb][Bdb] |"_cresc." [deb]3 [deb][de^c'][ded'] | %6
 [dfd'] [da][Af]!>(![Fd] [DA][A,F]!>)! |!p! ([G,CF]3 [G,CE] [G,CF][G,CE]) | [F,A,D] (A,DFDA,) | %9
 (F,A,DFDA,) | (G,A,CGCA,) | (G,A,CGCA,) | (F,A,DFDA,) | z (A,DADA,) | z (A,CACA,) | %15
 z ([^G,D]E^GED) | z ([A,C]EAEC) | z [^A,=CE][A,CE][A,CE] z [A,CE] | %18
 z [A=ca][Acg][Ac=f] [FAe][=FAd] | [E_B=c]2 z2 z2 | z [A=ca][Aca][Acg] [Ac=f][Ace] | %21
 [A=c^d]2"_cresc." z2!<(! z2!<)! | z [^cec'][ce=b][cea] [Ac^g][Acf] |!f! [^Gd]2 z2 z [DEG] | %24
!p!!p!!p! [CEA][CEA]"^rall." [DA][DA] [CEA][CEA] |!p! (F,"^a tempo dolce"A,DFDA,) | (G,A,CGCA,) | %27
 z (A,CACA,) | z (A,DADA,) |!f! [B,E]2 z2 z2 | [A,D]2 z2 z2 | !fermata![G,A,C]6 | %32
 [F,A,D] z z [Fdf][Fdf][Fdf] | [Fdf]3 [Fdf][Fdf][Fdf] | [Fdf]3 [Fdf][Fdf]"_cresc."[Fdf] | %35
 [Fdf]3 [=cdf][cdg][cda] | [Bdb]3 [Bdb][Bdb][Bdb] |"_cresc." [deb]3 [deb][dec'][ded'] | %38
 [dfd'] [da][Af]!>(![Fd] [DA]!>)![A,F] |!p! ([G,CF]3 [G,CE][G,CF][G,CE]) | [F,A,D] (A,DFDA,) | %41
 (F,A,DFDA,) | (G,A,CGCA,) | (G,A,CGCA,) | (F,A,DFDA,) | z (A,DADA,) | z (A,CACA,) | %47
 z ([^G,D]E^GED) | z ([A,C]EAEC) | z [_B,=CE][B,CE][B,CE] z [B,CE] | %50
 z [A=ca][Acg][Ac=f][=FAe][FAd] | [E_B=c]2 z2 z2 | z [A=ca][Aca][Acg] [Ac=f][Ace] | %53
 [A=c^d]2"_cresc." z2 z2 | z [^ce^c'][ce=b][cea][Ac^g][Acf] |!f!!f!!f! [^Gde]2 z2 z [DEG] | %56
!p!!p!!p! [CEA][CA]"^rall." [DA][DA] [CEA][CEA] |"^a tempo dolce" (F,A,DFDA,) | (G,A,CGCA,) | %59
 z (A,CACA,) | z (A,DADA,) |!f! [B,E]2"^col. voce" z2 z2 | [A,D]2 z2 z2 | !fermata![G,A,C]6 | %64
 [F,A,D]2 z2 z2 | [dfad']2 z2 z2 | !fermata![F,A,D]6 |] %67
V:3
 D,, (F,A,DA,F,) | D,, (F,^A,DA,F,) | D,, (F,B,DB,F,) | D,, (F,=CDCF,) | G,, (B,DGDB,) | %5
 ^G,,[K:treble] (DEBED) |[K:bass] A,, FDA, F,D, | A,,A,A,A,A,A, | D, z z2 z2 | [D,,D,]6 | %10
 [E,,E,]6 | A,,6 | [D,,D,]6 | F,4 =F,2 | E,6 | [E,,E,]6 | [A,,E,]4 z2 | G,4 =C,2 | %18
 =F,,[A,=C=F][A,CF][A,CF] [A,C][A,C] | =C,[_B,=C][B,CE][B,CE] [B,CE][B,CE] | %20
 =F,,[A,=C=F][A,CF][A,CF] [A,CF][A,CF] | =F,,[A,=C_E=F][A,CEF][A,CEF] [A,CEF][A,CEF] | %22
 E,,[K:treble][^C=EA][CEA][CEA] [CE][CE] |[K:bass] E,,[^G,DE][G,DE][G,DE] [E,,E,] z | %24
 [A,,E,][A,,E,] [A,,F,][A,,F,] [A,,=G,][A,,G,] | D,6 | E,6 | G,6 | F,6 | [G,,G,]2 z2 z2 | %30
 [A,,F,]2 z2 z2 | !fermata![A,,E,]6 | [D,,D,] (F,A,DA,F,) | D,, (F,^A,DA,F,) | D,, (F,B,DB,F,) | %35
 D,, (F,=CDCF,) | G,, (B,DGDB,) | ^G,,[K:treble] (DEBED) |[K:bass] A,, FDA, F,D, | A,,A,A,A,A,A, | %40
 D, z z4 | [D,,D,]6 | [E,,E,]6 | A,,6 | [D,,D,]6 | F,4 =F,2 | E,6 | [E,,E,]6 | [A,,E,]4 z2 | %49
 G,4 =C,2 | =F,,[A,=C=F][A,CF][A,CF] [A,C][A,C] | =C,[_B,=C] [B,CE][B,CE][B,CE][B,CE] | %52
 =F,,[A,=C=F][A,CF][A,CF] [A,CF][A,CF] | =F,,[A,=C_E=F][A,CEF][A,CEF] [A,CEF][A,CEF] | %54
 E,,[K:treble][^C=EA][CEA][CEA] [CE][CE] |[K:bass] E,,[^G,DE][G,DE][G,DE] [E,,E,] z | %56
 [A,,E,][A,,E,] [A,,F,][A,,F,] [A,,=G,][A,,G,] | D,6 | E,6 | G,6 | F,6 | [G,,G,]2 z2 z2 | %62
 [A,,F,]2 z2 z2 | !fermata![A,,E,]6 | [D,,D,]2 z2 z2 | [D,F,A,D]2 z2 z2 | !fermata![D,,D,]6 |] %67

